svgs/sharp-thin/square-envelope.svg

<svg xmlns="http://www.w3.org/2000/svg" viewBox="0 0 448 512"><!--! Font Awesome Pro 6.6.0 by @fontawesome - https://fontawesome.com License - https://fontawesome.com/license (Commercial License) Copyright 2024 Fonticons, Inc. --><path d="M432 48l0 416L16 464 16 48l416 0zM16 32L0 32 0 48 0 464l0 16 16 0 416 0 16 0 0-16 0-416 0-16-16 0L16 32zM368 160l0 22.8-3.8 2.3L224 270.6 83.8 185.2 80 182.8 80 160l288 0zm0 41.6L368 352 80 352l0-150.4 139.8 85.3 4.2 2.5 4.2-2.5L368 201.6zM80 144l-16 0 0 16 0 192 0 16 16 0 288 0 16 0 0-16 0-192 0-16-16 0L80 144z"/></svg>

<svg xmlns="http://www.w3.org/2000/svg" viewBox="0 0 448 512"><!--! Font Awesome Pro 6.5.2 by @fontawesome - https://fontawesome.com License - https://fontawesome.com/license (Commercial License) Copyright 2024 Fonticons, Inc. --><path d="M432 48V464H16V48H432zM16 32H0V48 464v16H16 432h16V464 48 32H432 16zM368 160v22.8l-3.8 2.3L224 270.6 83.8 185.2 80 182.8V160H368zm0 41.6V352H80V201.6l139.8 85.3 4.2 2.5 4.2-2.5L368 201.6zM80 144H64v16V352v16H80 368h16V352 160 144H368 80z"/></svg>
